images/logo13.svg

<?xml version="1.0" encoding="UTF-8" standalone="no"?>
<svg width="150px" height="60px" viewBox="0 0 150 60" version="1.1" xmlns="http://www.w3.org/2000/svg" xmlns:xlink="http://www.w3.org/1999/xlink" xmlns:sketch="http://www.bohemiancoding.com/sketch/ns">
    <!-- Generator: Sketch 3.3.3 (12081) - http://www.bohemiancoding.com/sketch -->
    <title>logo6</title>
    <desc>Created with Sketch.</desc>
    <defs></defs>
    <g id="Page-1" stroke="none" stroke-width="1" fill="none" fill-rule="evenodd" sketch:type="MSPage">
        <g id="logo6" sketch:type="MSArtboardGroup" fill="#FFFFFF">
            <g id="Group" sketch:type="MSLayerGroup" transform="translate(22.000000, 2.000000)">
                <path d="M0.0923074725,50.8633476 L3.60184595,50.8633476 L3.60184595,36.875005 L9.03507436,49.0695318 C9.67613125,50.5455749 10.5536662,51.0677483 12.2745474,51.0677483 C13.9956746,51.0677483 14.8392942,50.5455749 15.4806244,49.0695318 L20.9136069,36.875005 L20.9136069,50.8633476 L24.4234186,50.8633476 L24.4234186,36.8979001 C24.4234186,35.5355049 23.8832332,34.8767886 22.7697941,34.5363967 C20.1038753,33.6961748 18.315218,34.4227488 17.5052131,36.2394597 L12.1733754,48.2745484 L7.01023971,36.2394597 C6.23412279,34.4227488 4.41182353,33.6961748 1.74592653,34.5363967 C0.632216918,34.8767886 0.0923074725,35.5355049 0.0923074725,36.8979001 L0.0923074725,50.8633476 L0.0923074725,50.8633476 Z" id="Shape" sketch:type="MSShapeGroup"></path>
                <path d="M27.3414529,39.4775964 L30.8499529,39.4775964 L30.8499529,47.1841357 C30.8171581,47.6028674 30.9830453,48.585425 32.905642,48.6160437 C33.8864807,48.631491 40.4757814,48.6160437 40.5372717,48.6160437 L40.5372717,39.4400816 L44.0539704,39.4400816 C44.0700945,39.4400816 44.0504176,51.9534844 44.0506909,52.0067224 C44.0700945,55.0928689 40.2568759,55.7631707 38.4993465,55.8150294 L27.4177009,55.8150294 L27.4177009,53.4320101 C27.4371045,53.4320101 38.4911477,53.4342169 38.5190233,53.4314584 C40.7777671,53.1906463 40.5110358,52.0574778 40.5107625,51.675985 L40.5107625,50.7469413 L33.0513057,50.7469413 C29.5807931,50.7146675 27.370695,49.1859381 27.343366,47.4271546 C27.3409064,47.2641306 27.4182475,39.554557 27.3414529,39.4775964 L27.3414529,39.4775964 Z" id="Shape" sketch:type="MSShapeGroup"></path>
                <path d="M46.7587238,50.8633476 L56.8485991,50.8633476 C58.0297595,50.8633476 59.1773051,50.6137085 60.0884548,50.1820121 C61.6068553,49.4783331 62.3493848,48.5247392 62.3493848,47.2754402 L62.3493848,44.6869169 C62.3493848,43.6649136 61.5057379,42.7110438 59.8520587,42.0754985 C58.9745238,41.7345549 57.8947541,41.5530493 56.8485991,41.5530493 L52.5964764,41.5530493 C51.1794665,41.5530493 50.5044397,41.1216287 50.3358196,40.1680348 C50.3019316,40.054387 50.3019316,39.9633583 50.3019316,39.8499863 L50.3019316,38.237952 C50.3019316,38.1469233 50.3019316,38.0558947 50.3358196,37.9425227 C50.5044397,37.2159487 50.8758411,37.0112722 52.1242309,36.8979001 C52.2256215,36.8979001 52.3603536,36.875005 52.4617443,36.875005 L62.4843902,36.875005 L62.4843902,34.5137775 L52.6303644,34.5137775 C51.2130812,34.5137775 50.4705517,34.6045302 49.7957981,34.8086551 C47.7034881,35.4673714 46.7923385,36.5119939 46.7923385,38.3287047 L46.7923385,40.3950547 C46.7923385,41.9847457 48.581023,43.3471409 51.5842094,43.6649136 C51.9219961,43.6875328 52.2592362,43.7101521 52.5964764,43.7101521 L56.2410749,43.7101521 C56.3763536,43.7101521 56.5113589,43.7101521 56.6124763,43.7330471 C57.726134,43.8240758 58.1983795,44.0282006 58.5361663,44.4370019 C58.738401,44.6411267 58.8059037,44.8458032 58.8059037,45.0728231 L58.8059037,47.1391731 C58.8059037,47.3890881 58.6372836,47.7071366 58.3000435,47.979395 C57.9961448,48.2519292 57.4900112,48.4337106 56.8149844,48.4792249 C56.679979,48.4792249 56.5788616,48.5018442 56.4438562,48.5018442 L46.7587238,48.5018442 L46.7587238,50.8633476 L46.7587238,50.8633476 Z" id="Shape" sketch:type="MSShapeGroup"></path>
                <path d="M84.2432117,46.7532669 C84.2432117,49.1829039 86.031623,50.5455749 89.6426068,50.8181091 C89.979847,50.8407284 90.3176337,50.8633476 90.6548738,50.8633476 L99.8002581,50.8633476 L99.8002581,48.5018442 L90.5873711,48.5018442 C88.5289491,48.5018442 87.7528049,47.979395 87.7528049,46.7306476 L87.7528049,34.5137775 L84.2432117,34.5137775 L84.2432117,46.7532669 L84.2432117,46.7532669 Z" id="Shape" sketch:type="MSShapeGroup"></path>
                <path d="M64.5892716,46.877121 L64.5892716,38.4577999 C64.5892716,36.3189029 66.0773369,35.0216069 69.0190329,34.611978 C69.3234782,34.5667396 69.6618115,34.5438445 69.9659835,34.5438445 L76.6277062,34.5438445 C76.9657662,34.5438445 77.2704848,34.5667396 77.6085448,34.611978 C80.5505142,35.0216069 82.0383062,36.3189029 82.0383062,38.4577999 L82.0383062,46.877121 C82.0383062,48.6124577 81.4064592,49.5412257 79.9500955,50.1464281 L83.4072169,53.2960189 L79.3321863,53.2960189 L76.5353341,50.7477688 L73.7196249,50.9278952 L69.9659835,50.9278952 C69.3234782,50.9278952 68.6473582,50.8365907 67.9031889,50.6319142 C65.6715009,50.0176088 64.5892716,48.8342366 64.5892716,46.877121 L64.5892716,46.877121 Z M68.3773474,46.6724445 C68.3773474,46.7863682 68.4109621,46.9000161 68.4448501,47.036559 C68.6476315,48.0149789 69.5606941,48.5611507 70.9470955,48.5611507 L74.1355726,48.5611507 L71.2067212,45.8923567 L75.2817518,45.8923567 L77.8361956,48.2199312 C78.3068014,47.9667061 78.6167125,47.5794207 78.7249354,47.0820733 C78.7585501,46.9684255 78.7585501,46.8545017 78.7585501,46.7408539 L78.7585501,38.6627522 C78.7585501,38.5717236 78.7585501,38.4577999 78.7249354,38.3438762 C78.5218808,37.4338657 77.6088181,36.910589 76.2563048,36.910589 L70.9470955,36.910589 C69.3918008,36.910589 68.3773474,37.5933037 68.3773474,38.6627522 L68.3773474,46.6724445 L68.3773474,46.6724445 Z" id="Shape" sketch:type="MSShapeGroup"></path>
                <path d="M102.887891,30.5960761 C100.730538,30.5370454 99.0825979,30.7395152 97.6737868,31.3392008 C97.2734166,31.5096726 96.6350106,31.5140861 96.5696943,32.0205363 C96.7896929,32.2533489 96.8238542,32.6009128 96.9987599,32.8872392 C97.3351802,33.4367212 97.9030773,34.1729497 98.4097574,34.5591318 C98.9634434,34.9808978 99.5340734,35.4321791 100.12766,35.797397 C101.18338,36.4472863 102.362081,36.818297 103.37872,37.4692896 C103.977773,37.8529891 104.572999,38.3362684 105.157566,38.769344 C105.446434,38.9833992 105.640744,39.3163434 106.016244,39.4504037 L106.016244,39.3886146 C105.818929,39.1351136 105.768097,38.7864464 105.586905,38.5216358 C105.321267,38.2535151 105.055356,37.9851185 104.789445,37.716722 C104.009748,36.6720995 103.01989,35.7546412 101.967723,34.9924833 C101.128722,34.3845223 99.2506714,33.5633337 98.9005867,32.5777419 C98.8800899,32.5570535 98.8598664,32.5363652 98.8390964,32.5156769 C99.4340492,32.448095 100.130666,32.2307297 100.679706,32.0823254 C101.602061,31.8326863 102.426304,31.8972339 103.37872,31.648974 C103.808059,31.5251198 104.237398,31.4009899 104.667011,31.2774116 L104.667011,31.0297034 C104.185473,30.5309768 103.842221,29.8711572 103.31723,29.4198758 C101.943673,28.239262 100.444403,27.0597516 98.9005867,26.076201 C98.0443684,25.5306912 96.9861886,25.1762037 96.078865,24.7139437 C95.7735998,24.5585054 95.2374044,24.477683 95.0357162,24.2185549 C94.5590981,23.6051598 94.2994723,22.8277477 93.931897,22.1133384 C93.1617651,20.6166897 92.405571,18.9820913 91.7234386,17.4075718 C91.2580254,16.3338201 90.9541266,15.2748813 90.3739315,14.3115776 C87.5885574,9.68930913 84.5902903,6.89933668 79.9457229,4.15705771 C78.9575054,3.5738676 77.7675997,3.34353757 76.5101914,3.04264656 C75.8357111,3.00143541 75.1606842,2.95994842 74.4859307,2.91873728 C74.0740823,2.74498293 73.6455632,2.23638112 73.2591308,1.9899142 C71.7205068,1.0088269 67.7739226,-1.12519598 66.6343023,1.68038926 C65.9147292,3.45128237 67.7096994,5.17936443 68.3516582,6.0766585 C68.8023137,6.70619047 69.3792294,7.4119658 69.7011653,8.11989273 C69.9129652,8.5851318 69.9495861,9.05169493 70.1307776,9.54410466 C70.5767872,10.7568543 70.964586,12.076273 71.5415017,13.1971665 C71.8331024,13.7642197 72.1544917,14.3616986 72.5231602,14.8689211 C72.7491712,15.1800736 73.1364235,15.3171682 73.1976405,15.7977442 C72.8188603,16.3327443 72.7972703,17.1632289 72.5843772,17.841006 C71.6256751,20.8922582 71.9872381,24.6848421 73.3818381,26.9430694 C73.8098106,27.6362663 74.817705,29.1230673 76.2035598,28.552897 C77.4158752,28.0544463 77.1450446,26.5099938 77.4918499,25.1473779 C77.5702842,24.8383771 77.5221851,24.611302 77.6757742,24.4044188 L77.6757742,24.4663734 C78.0438962,25.2093326 78.4120181,25.9522641 78.78014,26.6950854 C79.5972778,28.0235517 81.0476291,29.4118763 82.2766152,30.3486437 C82.9139281,30.8344056 83.4156889,31.6743516 84.239659,31.9584713 L84.239659,31.8964063 L84.1781687,31.8964063 C84.0185672,31.6451121 83.7687799,31.5411188 83.5649054,31.3392008 C83.0847345,30.8641968 82.5509986,30.2736141 82.1539079,29.7293732 C81.0361509,28.1976095 80.0482067,26.5210276 79.148262,24.7758983 C78.7183765,23.9427105 78.3447887,23.0233213 77.9824059,22.175293 C77.8427546,21.8482796 77.8443943,21.3539665 77.5533402,21.1845429 C77.1565228,21.8059926 76.571955,22.3083879 76.2650501,23.0421615 C75.7742208,24.2150516 75.7108175,25.6454425 75.5290795,27.1287127 C75.4214031,27.1676067 75.4692289,27.1408498 75.4060989,27.1905018 C74.5517936,26.9825152 74.2514476,26.0947653 73.9341577,25.3332418 C73.1309577,23.4071863 72.9817412,20.3058132 73.6884698,18.0888246 C73.8713009,17.5153166 74.6977306,15.7085913 74.3632233,15.1787219 C74.2036219,14.6499283 73.6767183,14.3441824 73.3818381,13.9401256 C73.0169957,13.4406819 72.6526998,12.7831241 72.4001796,12.2063888 C71.7429166,10.7046094 71.4360117,9.01881428 70.7440408,7.50087044 C70.4133596,6.77515155 69.8539345,6.04082632 69.3945337,5.39568157 C68.8859406,4.68102404 68.3164037,4.15463028 67.9223192,3.29021686 C67.7821213,2.98311935 67.591638,2.49148197 67.7996119,2.17577812 C67.8657481,1.96268837 67.9589401,1.87381132 68.1677338,1.80429854 C68.5235577,1.52738116 69.5145081,1.89643055 69.8850896,2.05186884 C70.8689345,2.46428372 71.6898983,2.8570309 72.5231602,3.41412614 C72.9232571,3.68188824 73.3277267,4.19962049 73.8111771,4.34294921 L74.3632233,4.34294921 C75.2268205,4.54335013 76.1942679,4.4051797 77.0010206,4.65244657 C78.4270491,5.0899357 79.7049542,5.77038853 80.8656178,6.51009272 C84.4014468,8.76346517 87.2923108,11.9712315 89.2698389,15.7977442 C89.5879488,16.413815 89.725687,17.0018875 90.0058095,17.6553904 C90.571247,18.9732091 91.2834414,20.3292599 91.8458727,21.6179495 C92.4072108,22.9037152 92.9543378,24.2013146 93.7476994,25.2712872 C94.1650135,25.8337338 95.7760595,26.1354524 96.508204,26.447653 C97.021443,26.6666734 97.8623571,26.8947967 98.3485404,27.1905018 C99.2771806,27.7559827 100.176852,28.4290429 101.047828,29.0483135 C101.483179,29.3578108 102.821208,30.0366638 102.887891,30.5960761 L102.887891,30.5960761 Z" id="Shape" sketch:type="MSShapeGroup"></path>
                <path d="M75.4675892,7.00547606 C75.0177534,6.99711798 74.6996436,7.05504529 74.3632233,7.12913708 L74.3632233,7.19109172 L74.4247136,7.19109172 C74.6392465,7.63608382 75.0180267,7.92243783 75.2833915,8.30577872 C75.4878126,8.73921294 75.6922337,9.17264715 75.8969281,9.60580553 C75.9171516,9.58531029 75.9379217,9.56459438 75.9581451,9.54409915 C76.3380185,9.27390961 76.5121044,8.84157877 76.5101914,8.18186944 C76.3579687,8.02022465 76.3355589,7.81739631 76.2035598,7.62449836 C76.0281074,7.36752176 75.688681,7.22151735 75.4675892,7.00547606 L75.4675892,7.00547606 Z" id="Shape" sketch:type="MSShapeGroup"></path>
                <path d="M101.447652,48.4345381 C101.447652,49.9941621 102.668439,51.045129 104.03407,51.045129 C105.399702,51.045129 106.620489,49.9941621 106.620489,48.4345381 C106.620489,46.8751901 105.399702,45.8242231 104.03407,45.8242231 C102.668439,45.8242231 101.447652,46.8751901 101.447652,48.4345381 L101.447652,48.4345381 Z M106.041114,48.4345381 C106.041114,49.6179104 105.144722,50.5022673 104.03407,50.5022673 C102.910028,50.5022673 102.027027,49.6179104 102.027027,48.4345381 C102.027027,47.2511659 102.910028,46.3668089 104.03407,46.3668089 C105.144722,46.3668089 106.041114,47.2511659 106.041114,48.4345381 L106.041114,48.4345381 Z M104.73096,49.9243734 L105.310062,49.9243734 L104.462043,48.6157679 C104.917071,48.5669434 105.26169,48.3440612 105.26169,47.8011995 C105.26169,47.1954453 104.882636,46.9449787 104.151585,46.9449787 L102.999667,46.9449787 L102.999667,49.9243734 L103.496235,49.9243734 L103.496235,48.6364562 L103.958369,48.6364562 L104.73096,49.9243734 L104.73096,49.9243734 Z M103.496235,48.2188279 L103.496235,47.362607 L104.068505,47.362607 C104.365298,47.362607 104.723855,47.4183276 104.723855,47.7664431 C104.723855,48.1837956 104.399733,48.2188279 104.027238,48.2188279 L103.496235,48.2188279 L103.496235,48.2188279 Z" id="Shape" sketch:type="MSShapeGroup"></path>
            </g>
        </g>
    </g>
</svg>

<svg width="150" height="60" xmlns="http://www.w3.org/2000/svg"><g id="Page-1" stroke="none" stroke-width="1" fill="none" fill-rule="evenodd"><g id="logo6" fill="#FFF"><g id="Group" transform="translate(22 2)"><path d="M.092 50.863h3.51V36.875L9.035 49.07c.641 1.476 1.519 1.998 3.24 1.998 1.72 0 2.564-.522 3.206-1.998l5.433-12.195v13.988h3.51V36.898c0-1.362-.54-2.021-1.654-2.362-2.666-.84-4.455-.113-5.265 1.703l-5.332 12.036L7.01 36.239c-.776-1.816-2.598-2.543-5.264-1.703-1.114.34-1.654 1-1.654 2.362v13.965zm27.249-11.385h3.509v7.706c-.033.419.133 1.401 2.056 1.432.98.015 7.57 0 7.631 0V39.44h3.517c.016 0-.004 12.513-.003 12.567.02 3.086-3.794 3.756-5.552 3.808H27.418v-2.383c.02 0 11.073.002 11.101 0 2.259-.241 1.992-1.375 1.992-1.756v-.93h-7.46c-3.47-.031-5.68-1.56-5.708-3.319-.002-.163.075-7.872-.002-7.95zm19.418 11.385h10.09c1.18 0 2.328-.25 3.24-.681 1.518-.704 2.26-1.657 2.26-2.907v-2.588c0-1.022-.843-1.976-2.497-2.612-.877-.34-1.957-.522-3.003-.522h-4.253c-1.417 0-2.092-.431-2.26-1.385-.034-.114-.034-.205-.034-.318v-1.612c0-.091 0-.182.034-.295.168-.727.54-.932 1.788-1.045.102 0 .236-.023.338-.023h10.022v-2.361H52.63c-1.417 0-2.16.09-2.834.295-2.093.658-3.004 1.703-3.004 3.52v2.066c0 1.59 1.789 2.952 4.792 3.27.338.023.675.045 1.012.045h3.645c.135 0 .27 0 .371.023 1.114.091 1.586.295 1.924.704a.85.85 0 01.27.636v2.066c0 .25-.169.568-.506.84-.304.273-.81.455-1.485.5-.135 0-.236.023-.371.023h-9.685v2.361zm37.484-4.11c0 2.43 1.789 3.793 5.4 4.065.337.023.675.045 1.012.045H99.8v-2.361h-9.213c-2.058 0-2.834-.523-2.834-1.771V34.514h-3.51v12.24zm-19.653.124v-8.42c0-2.138 1.487-3.435 4.429-3.845a6.67 6.67 0 01.947-.068h6.662c.338 0 .642.023.98.068 2.943.41 4.43 1.707 4.43 3.846v8.42c0 1.734-.632 2.663-2.088 3.268l3.457 3.15h-4.075l-2.797-2.548-2.815.18h-3.754a7.712 7.712 0 01-2.063-.296c-2.231-.614-3.314-1.798-3.314-3.755zm3.787-.205c0 .114.034.228.068.365.203.978 1.116 1.524 2.502 1.524h3.189l-2.93-2.669h4.076l2.554 2.328c.47-.253.78-.64.889-1.138.034-.114.034-.227.034-.341v-8.078c0-.091 0-.205-.034-.32-.203-.91-1.116-1.432-2.469-1.432h-5.309c-1.555 0-2.57.682-2.57 1.752v8.01zm34.511-16.076c-2.157-.059-3.805.144-5.214.743-.4.17-1.039.175-1.104.682.22.232.254.58.429.866.336.55.904 1.286 1.41 1.672.554.422 1.125.873 1.719 1.238 1.055.65 2.234 1.021 3.25 1.672.6.384 1.195.867 1.78 1.3.288.214.483.547.858.681v-.061c-.197-.254-.248-.603-.43-.867-.265-.268-.53-.537-.797-.805-.78-1.045-1.77-1.962-2.821-2.725-.84-.607-2.717-1.429-3.067-2.414l-.062-.062c.595-.068 1.292-.285 1.84-.434.923-.25 1.747-.185 2.7-.433l1.288-.372v-.247c-.482-.499-.825-1.159-1.35-1.61-1.373-1.18-2.873-2.36-4.416-3.344-.857-.545-1.915-.9-2.822-1.362-.305-.155-.842-.236-1.043-.495-.477-.614-.737-1.391-1.104-2.106a79.908 79.908 0 01-2.209-4.705c-.465-1.074-.769-2.133-1.35-3.096C87.59 9.689 84.59 6.899 79.947 4.157c-.988-.583-2.178-.813-3.436-1.114l-2.024-.124c-.412-.174-.84-.683-1.227-.93-1.538-.98-5.485-3.114-6.625-.309-.72 1.771 1.076 3.5 1.718 4.397.45.63 1.027 1.335 1.35 2.043.211.465.248.932.429 1.424.446 1.213.834 2.532 1.41 3.653.292.567.613 1.165.982 1.672.226.311.613.448.675.929-.38.535-.4 1.365-.614 2.043-.958 3.051-.597 6.844.798 9.102.428.693 1.436 2.18 2.822 1.61 1.212-.499.941-2.043 1.288-3.406.078-.309.03-.536.184-.743v.062l1.104 2.23c.817 1.328 2.268 2.716 3.497 3.653.637.485 1.139 1.325 1.963 1.61v-.063h-.062c-.16-.25-.41-.355-.613-.557a14.149 14.149 0 01-1.411-1.61c-1.118-1.531-2.106-3.208-3.006-4.953-.43-.833-.803-1.753-1.166-2.6-.14-.328-.138-.822-.429-.991-.396.621-.981 1.123-1.288 1.857-.49 1.173-.554 2.603-.736 4.087-.108.039-.06.012-.123.062-.854-.208-1.155-1.096-1.472-1.858-.803-1.926-.952-5.027-.246-7.244.183-.574 1.01-2.38.675-2.91-.16-.53-.686-.835-.981-1.239a9.767 9.767 0 01-.982-1.734c-.657-1.501-.964-3.187-1.656-4.705-.33-.726-.89-1.46-1.35-2.105-.508-.715-1.078-1.241-1.472-2.106-.14-.307-.33-.799-.122-1.114.066-.213.159-.302.368-.372.356-.277 1.347.092 1.717.248.984.412 1.805.805 2.638 1.362.4.268.805.786 1.288.929h.552c.864.2 1.831.062 2.638.31 1.426.437 2.704 1.117 3.865 1.857 3.535 2.253 6.426 5.461 8.404 9.288.318.616.456 1.204.736 1.857.565 1.318 1.277 2.674 1.84 3.963.561 1.286 1.108 2.583 1.902 3.653.417.563 2.028.864 2.76 1.177.513.219 1.354.447 1.84.743.93.565 1.829 1.238 2.7 1.857.435.31 1.773.989 1.84 1.548z" id="Shape"/><path d="M75.468 7.005a4.35 4.35 0 00-1.105.124v.062h.062c.214.445.593.731.858 1.115l.614 1.3.061-.062c.38-.27.554-.702.552-1.362-.152-.162-.174-.365-.306-.558-.176-.256-.515-.402-.736-.619zm25.98 41.43c0 1.56 1.22 2.61 2.586 2.61 1.366 0 2.586-1.05 2.586-2.61 0-1.56-1.22-2.61-2.586-2.61-1.366 0-2.586 1.05-2.586 2.61zm4.593 0c0 1.183-.896 2.067-2.007 2.067-1.124 0-2.007-.884-2.007-2.067 0-1.184.883-2.068 2.007-2.068 1.11 0 2.007.884 2.007 2.068zm-1.31 1.49h.58l-.849-1.31c.455-.048.8-.27.8-.814 0-.606-.38-.856-1.11-.856H103v2.98h.496v-1.289h.462l.773 1.288zm-1.235-1.706v-.856h.573c.296 0 .655.055.655.403 0 .418-.324.453-.697.453h-.53z" id="Shape"/></g></g></g></svg>
